libs/ui/packages/crypto-icons/src/svg/WBTC.svg

<svg width="24" height="24" viewBox="0 0 24 24" fill="none">
<path d="M17.1689 7.245L16.7189 7.695C17.7927 8.86925 18.3882 10.4028 18.3882 11.994C18.3882 13.5852 17.7927 15.1187 16.7189 16.293L17.1689 16.743C18.3631 15.4477 19.0261 13.7505 19.0261 11.9887C19.0261 10.227 18.3631 8.52978 17.1689 7.2345V7.245ZM7.70544 7.284C8.87968 6.21022 10.4133 5.61476 12.0044 5.61476C13.5956 5.61476 15.1292 6.21022 16.3034 7.284L16.7534 6.834C15.4582 5.63985 13.7609 4.97687 11.9992 4.97687C10.2374 4.97687 8.54022 5.63985 7.24494 6.834L7.70544 7.284ZM7.28394 16.2975C6.21144 15.1235 5.61676 13.5909 5.61676 12.0007C5.61676 10.4106 6.21144 8.87798 7.28394 7.704L6.83394 7.254C5.63979 8.54928 4.97681 10.2465 4.97681 12.0082C4.97681 13.77 5.63979 15.4672 6.83394 16.7625L7.28394 16.2975ZM16.2974 16.713C15.1232 17.7868 13.5896 18.3822 11.9984 18.3822C10.4073 18.3822 8.87369 17.7868 7.69944 16.713L7.24944 17.163C8.54472 18.3571 10.2419 19.0201 12.0037 19.0201C13.7654 19.0201 15.4627 18.3571 16.7579 17.163L16.2974 16.713ZM14.8409 10.4985C14.7509 9.5595 13.9409 9.2445 12.9164 9.1485V7.8555H12.1244V9.1245H11.4914V7.8555H10.7054V9.1575H9.09894V10.005C9.09894 10.005 9.68394 9.9945 9.67494 10.005C9.78042 9.99339 9.88628 10.0232 9.97023 10.0881C10.0542 10.153 10.1096 10.248 10.1249 10.353V13.917C10.1227 13.954 10.113 13.9902 10.0965 14.0235C10.08 14.0567 10.0571 14.0863 10.0289 14.1105C10.0013 14.1352 9.96904 14.154 9.93399 14.1658C9.89893 14.1777 9.86184 14.1823 9.82494 14.1795C9.83544 14.1885 9.24894 14.1795 9.24894 14.1795L9.09894 15.126H10.6904V16.449H11.4824V15.1455H12.1154V16.443H12.9089V15.135C14.2469 15.054 15.1799 14.724 15.2969 13.4715C15.3914 12.4635 14.9174 12.0135 14.1599 11.832C14.6204 11.6055 14.9054 11.1855 14.8409 10.4985ZM13.7309 13.3155C13.7309 14.2995 12.0449 14.187 11.5079 14.187V12.441C12.0449 12.4425 13.7309 12.288 13.7309 13.3155ZM13.3634 10.8555C13.3634 11.7555 11.9564 11.646 11.5094 11.646V10.059C11.9564 10.059 13.3634 9.918 13.3634 10.8555Z" fill="#201A2D"/>
<path d="M11.9985 20.1945C7.47298 20.1937 3.80548 16.5247 3.80548 11.9992C3.80548 7.47448 7.47448 3.80548 11.9992 3.80548C16.5247 3.80548 20.1937 7.47298 20.1945 11.9985C20.1947 13.0748 19.9828 14.1407 19.571 15.1352C19.1592 16.1297 18.5555 17.0333 17.7944 17.7944C17.0333 18.5555 16.1297 19.1592 15.1352 19.571C14.1407 19.9828 13.0748 20.1947 11.9985 20.1945ZM11.9985 4.44448C7.82923 4.44748 4.45198 7.82923 4.45348 11.9985C4.45498 16.1677 7.83598 19.5465 12.0045 19.5465C16.1737 19.5465 19.554 16.1677 19.5555 11.9985C19.5559 11.0061 19.3607 10.0234 18.981 9.10653C18.6013 8.18966 18.0446 7.35663 17.3428 6.65506C16.6409 5.95348 15.8077 5.39714 14.8907 5.01783C13.9736 4.63852 12.9908 4.44369 11.9985 4.44448Z" fill="#201A2D"/>
</svg>

<svg width="24" height="24" viewBox="0 0 24 24" fill="none"><path fill="#201a2d" d="m17.169 7.245-.45.45a6.37 6.37 0 0 1 0 8.598l.45.45a7.014 7.014 0 0 0 0-9.508zm-9.464.039a6.37 6.37 0 0 1 8.598 0l.45-.45a7.014 7.014 0 0 0-9.508 0zm-.421 9.014a6.37 6.37 0 0 1 0-8.594l-.45-.45a7.014 7.014 0 0 0 0 9.509zm9.013.415a6.37 6.37 0 0 1-8.598 0l-.45.45a7.014 7.014 0 0 0 9.509 0zm-1.456-6.215c-.09-.938-.9-1.253-1.925-1.35V7.857h-.792v1.268h-.633v-1.27h-.786v1.303H9.1v.847s.585-.01.576 0a.41.41 0 0 1 .45.348v3.564a.28.28 0 0 1-.096.194.27.27 0 0 1-.204.069c.01.008-.576 0-.576 0l-.15.946h1.591v1.323h.792v-1.304h.633v1.298h.794v-1.308c1.338-.081 2.27-.411 2.388-1.663.094-1.008-.38-1.458-1.137-1.64.46-.227.745-.647.68-1.334m-1.11 2.818c0 .983-1.686.871-2.223.871v-1.746c.537.002 2.223-.153 2.223.874m-.368-2.46c0 .9-1.407.79-1.854.79v-1.587c.447 0 1.854-.141 1.854.797"/><path fill="#201a2d" d="M11.999 20.195a8.195 8.195 0 1 1 .003-16.39 8.195 8.195 0 0 1-.004 16.39m0-15.75a7.55 7.55 0 0 0 .005 15.102A7.55 7.55 0 1 0 12 4.444"/></svg>
